assets/icons/pinterest.svg

<svg xml:space="preserve" fill="#ebebeb" style="fill-rule:evenodd;clip-rule:evenodd;stroke-linejoin:round;stroke-miterlimit:2" viewBox="0 0 800 800" xmlns="http://www.w3.org/2000/svg"><path d="M12 2.25A9.75 9.75 0 0 0 2.25 12 9.75 9.75 0 0 0 12 21.75 9.75 9.75 0 0 0 21.75 12 9.75 9.75 0 0 0 12 2.25M3.75 12a8.25 8.25 0 1 1 5.789 7.877 9.3 9.3 0 0 0 1-2.128l.516-1.977a2.24 2.24 0 0 0 1.906.95c2.535 0 4.317-2.304 4.317-5.166 0-2.749-2.245-4.803-5.124-4.803-3.587 0-5.492 2.41-5.492 5.029 0 1.223.647 2.737 1.686 3.224.154.071.255 0 .279-.113s.166-.682.231-.943a.25.25 0 0 0 0-.127.25.25 0 0 0-.059-.111 3.22 3.22 0 0 1-.594-1.894 3.6 3.6 0 0 1 3.753-3.61 3.27 3.27 0 0 1 2.483.926 3.27 3.27 0 0 1 .99 2.458c0 2.244-1.14 3.806-2.612 3.806a1.2 1.2 0 0 1-1.009-.43 1.18 1.18 0 0 1-.226-1.072c.084-.351.196-.711.304-1.063.197-.638.385-1.245.385-1.704a1.036 1.036 0 0 0-.614-1.099 1.05 1.05 0 0 0-.437-.089c-.832 0-1.503.867-1.503 2.019-.006.407.071.811.226 1.188l-.98 4.156a7.9 7.9 0 0 0-.001 2.37 8.26 8.26 0 0 1-4.201-3.715 8.3 8.3 0 0 1-.58-1.314A8.2 8.2 0 0 1 3.75 12" style="fill:#fff" transform="scale(33.3333)"/></svg>

<?xml version="1.0" encoding="UTF-8" standalone="no"?>
<!DOCTYPE svg PUBLIC "-//W3C//DTD SVG 1.1//EN" "http://www.w3.org/Graphics/SVG/1.1/DTD/svg11.dtd">
<svg width="100%" height="100%" viewBox="0 0 800 800" version="1.1" xmlns="http://www.w3.org/2000/svg" xmlns:xlink="http://www.w3.org/1999/xlink" xml:space="preserve" xmlns:serif="http://www.serif.com/" style="fill-rule:evenodd;clip-rule:evenodd;stroke-linejoin:round;stroke-miterlimit:2;">
    <g transform="matrix(33.3333,0,0,33.3333,0,0)">
        <path d="M12,2.25C6.615,2.25 2.25,6.615 2.25,12C2.25,17.385 6.615,21.75 12,21.75C17.385,21.75 21.75,17.385 21.75,12C21.75,6.615 17.385,2.25 12,2.25ZM3.75,12C3.75,7.444 7.444,3.75 12,3.75C16.556,3.75 20.25,7.444 20.25,12C20.25,16.556 16.556,20.25 12,20.25C11.143,20.25 10.316,20.119 9.539,19.877C9.961,19.213 10.297,18.498 10.539,17.749L11.055,15.772C11.269,16.076 11.555,16.323 11.888,16.489C12.221,16.655 12.589,16.735 12.961,16.722C15.496,16.722 17.278,14.418 17.278,11.556C17.278,8.807 15.033,6.753 12.154,6.753C8.567,6.753 6.662,9.163 6.662,11.782C6.662,13.005 7.309,14.519 8.348,15.006C8.502,15.077 8.603,15.006 8.627,14.893C8.651,14.78 8.793,14.211 8.858,13.95C8.869,13.908 8.869,13.864 8.858,13.823C8.848,13.782 8.828,13.743 8.799,13.712C8.406,13.159 8.199,12.496 8.205,11.818C8.203,11.331 8.3,10.849 8.49,10.4C8.679,9.952 8.958,9.547 9.309,9.209C9.66,8.872 10.075,8.609 10.531,8.437C10.986,8.265 11.471,8.187 11.958,8.208C12.413,8.181 12.869,8.249 13.297,8.409C13.725,8.568 14.114,8.815 14.441,9.134C14.768,9.452 15.025,9.835 15.195,10.258C15.366,10.682 15.446,11.136 15.431,11.592C15.431,13.836 14.291,15.398 12.819,15.398C12.629,15.412 12.438,15.381 12.262,15.306C12.086,15.231 11.932,15.115 11.81,14.968C11.689,14.821 11.605,14.646 11.566,14.46C11.527,14.273 11.533,14.079 11.584,13.896C11.668,13.545 11.78,13.185 11.888,12.833C12.085,12.195 12.273,11.588 12.273,11.129C12.293,10.98 12.281,10.828 12.238,10.684C12.194,10.539 12.12,10.406 12.02,10.294C11.92,10.181 11.797,10.091 11.659,10.03C11.521,9.969 11.372,9.939 11.222,9.941C10.39,9.941 9.719,10.808 9.719,11.96C9.713,12.367 9.79,12.771 9.945,13.148L8.965,17.304C8.845,18.089 8.845,18.888 8.964,19.674C8.314,19.416 7.704,19.078 7.147,18.672C6.17,17.958 5.353,17.035 4.763,15.959C4.531,15.536 4.337,15.096 4.183,14.645C3.902,13.814 3.75,12.925 3.75,12Z" style="fill:white;"/>
    </g>
</svg>
